src/assets/shopping-cart.svg

<svg width="25" height="25" viewBox="0 0 25 25" fill="none" xmlns="http://www.w3.org/2000/svg">
<path d="M3.77734 3.5H5.77734L6.17734 5.5M7.77734 13.5H17.7773L21.7773 5.5H6.17734M7.77734 13.5L6.17734 5.5M7.77734 13.5L5.48445 15.7929C4.85449 16.4229 5.30065 17.5 6.19156 17.5H17.7773M17.7773 17.5C16.6728 17.5 15.7773 18.3954 15.7773 19.5C15.7773 20.6046 16.6728 21.5 17.7773 21.5C18.8819 21.5 19.7773 20.6046 19.7773 19.5C19.7773 18.3954 18.8819 17.5 17.7773 17.5ZM9.77734 19.5C9.77734 20.6046 8.88191 21.5 7.77734 21.5C6.67277 21.5 5.77734 20.6046 5.77734 19.5C5.77734 18.3954 6.67277 17.5 7.77734 17.5C8.88191 17.5 9.77734 18.3954 9.77734 19.5Z" stroke="white" stroke-width="2" stroke-linecap="round" stroke-linejoin="round"/>
</svg>

<svg xmlns="http://www.w3.org/2000/svg" width="25" height="25" fill="none"><path stroke="#fff" stroke-linecap="round" stroke-linejoin="round" stroke-width="2" d="M3.777 3.5h2l.4 2m1.6 8h10l4-8h-15.6m1.6 8-1.6-8m1.6 8-2.293 2.293c-.63.63-.183 1.707.708 1.707h11.585m0 0a2 2 0 1 0 0 4 2 2 0 0 0 0-4m-8 2a2 2 0 1 1-4 0 2 2 0 0 1 4 0"/></svg>
